X:98
T:The First of May
N:Hornpipe    Allan's  #98  pp25
N:Trad/Anon
N:CONVERTED FROM NOTEWORTHY COMPOSER  (WWW.NOTEWORTHYSOFTWARE.COM) BY
N:ABC2NWC (HTTP://MEMBERS.AOL.COM/ABACUSMUSIC/), WITH
Z: (INTO NWC) VINCE BRENNAN 2002   (WWW.SOSYOURMOM.COM)
I:abc2nwc
M:4/4
L:1/8
K:D
(A3/2G/2)|E3/2A/2A3/2B/2 =c3/2B/2c3/2A/2|d3/2^c/2d3/2e/2 f2e3/2f/2|g3/2f/2e3/2c/2 d3/2f/2e3/2d/2|c3/2A/2G3/2F/2 G2A3/2G/2|
E3/2A/2A3/2B/2 =c3/2B/2c3/2A/2|d3/2^c/2d3/2e/2 f2e3/2f/2|g3/2f/2e3/2c/2 d3/2f/2e3/2c/2|A2A2A2:|
|:f3/2g/2|a2a3/2f/2 g2g3/2e/2|f3/2g/2f3/2d/2 e2e3/2d/2|c3/2d/2e3/2f/2 g3/2f/2e3/2c/2|d3/2c/2A3/2F/2 G2A3/2G/2|
E3/2A/2A3/2B/2 =c3/2B/2c3/2A/2|d3/2^c/2d3/2e/2 f2e3/2f/2|g3/2f/2e3/2c/2 d3/2f/2e3/2c/2|A2A2A2:|
